packages/core/src/svgs/tokens/mono/HOP.svg

<svg width="24" height="24" viewBox="0 0 24 24" fill="none" xmlns="http://www.w3.org/2000/svg">
<path fill-rule="evenodd" clip-rule="evenodd" d="M17.4632 2.5031L21.642 8.62509C21.8361 8.9041 21.956 9.22857 21.99 9.56763C22.024 9.90655 21.971 10.2487 21.8361 10.561C21.6499 10.9993 21.2489 11.3124 20.792 11.4204C20.3066 11.5349 19.8864 11.3688 19.45 11.1963C19.3828 11.1698 19.3153 11.1431 19.2472 11.1173L19.2442 11.1167L19.2416 11.118L19.2406 11.1208L19.2418 11.1235C19.7044 11.9118 20.0991 12.7385 20.4216 13.5947C20.5761 14.0042 20.3845 14.4816 19.9733 14.6298C19.8025 14.691 19.6157 14.6894 19.4458 14.6254C19.276 14.5614 19.1341 14.439 19.0452 14.2799C19.0452 14.2799 17.5274 11.7691 16.304 10.5918C15.2163 9.544 14.0329 8.62922 12.7264 7.98279C11.4199 7.33635 10.0168 6.96609 8.58254 6.83941C7.14817 6.71267 5.68961 6.82986 4.21993 7.07629C3.52868 7.19179 2.8333 6.78185 2.65442 6.09891C2.46111 5.36135 2.85099 4.73235 3.6146 4.4441H3.62242C10.5138 2.10954 16.3156 6.46704 16.7436 6.78847L16.7486 6.79216L16.7511 6.79254L16.7533 6.79128L16.7544 6.78891L16.7539 6.78636C15.8102 5.4061 15.4158 4.28135 15.3714 3.21873C15.3228 2.05297 16.8069 1.54361 17.4632 2.5031ZM6.55848 21.5001L2.35624 15.3438C2.16281 15.065 2.04354 14.7408 2.00985 14.4023C1.97617 14.0638 2.02918 13.7223 2.1638 13.4103C2.34842 12.9734 2.7498 12.6587 3.20668 12.5527C3.69086 12.4379 4.11286 12.6046 4.55024 12.7774C4.61692 12.8037 4.68393 12.8302 4.75161 12.8557L4.75429 12.8559L4.75655 12.8544L4.75754 12.8518L4.75743 12.8503C4.29611 12.0646 3.90198 11.2393 3.58004 10.3859C3.42992 9.98675 3.59729 9.52082 3.9888 9.35515C4.16267 9.28252 4.35692 9.27655 4.53486 9.33852C4.71273 9.4005 4.86186 9.52607 4.95392 9.69144C4.95392 9.69144 6.47218 12.2023 7.69511 13.3797C8.78279 14.4269 9.96663 15.3426 11.2727 15.9887C12.5788 16.6347 13.9814 17.0048 15.4161 17.1316C16.851 17.2583 18.3092 17.1437 19.7792 16.8952C20.47 16.7792 21.1655 17.1892 21.344 17.8717C21.5356 18.61 21.1477 19.2378 20.3841 19.5253C20.3813 19.5254 20.3785 19.5254 20.3759 19.5253C13.4936 21.8573 7.69429 17.5101 7.25629 17.1817L7.25017 17.1772C7.24524 17.1743 7.24235 17.1797 7.24524 17.1838C8.19348 18.5711 8.58705 19.7004 8.62818 20.7681C8.67298 21.935 7.21648 22.4626 6.55848 21.5001Z" fill="white"/>
</svg>

<svg xmlns="http://www.w3.org/2000/svg" width="24" height="24" fill="none" viewBox="0 0 24 24">
    <path fill="#fff" fill-rule="evenodd" d="m17.463 2.503 4.179 6.122a2 2 0 0 1 .194 1.936 1.5 1.5 0 0 1-1.044.86c-.485.114-.906-.052-1.342-.225l-.203-.079h-.003l-.002.001-.001.003v.002a16 16 0 0 1 1.18 2.472c.155.41-.037.887-.448 1.035a.764.764 0 0 1-.928-.35s-1.518-2.51-2.741-3.688c-1.088-1.048-2.271-1.963-3.578-2.61A11.6 11.6 0 0 0 8.583 6.84c-1.435-.126-2.893-.01-4.363.237-.691.116-1.387-.294-1.566-.977-.193-.738.197-1.367.96-1.655h.008c6.892-2.334 12.694 2.023 13.122 2.344l.005.004h.004l.001-.003v-.003c-.944-1.38-1.338-2.505-1.383-3.567-.048-1.166 1.436-1.675 2.092-.716M6.558 21.5l-4.202-6.156a2 2 0 0 1-.192-1.934 1.5 1.5 0 0 1 1.043-.857c.484-.115.906.052 1.343.224l.202.079h.002l.003-.002v-.004a16 16 0 0 1-1.177-2.464c-.15-.4.017-.865.409-1.03a.764.764 0 0 1 .965.335s1.518 2.511 2.741 3.689c1.088 1.047 2.272 1.963 3.578 2.609a11.6 11.6 0 0 0 4.143 1.143c1.435.126 2.893.012 4.363-.237.691-.116 1.387.294 1.565.977.192.738-.196 1.366-.96 1.653h-.008c-6.882 2.332-12.682-2.015-13.12-2.343l-.006-.005c-.005-.003-.008.003-.005.007.948 1.387 1.342 2.516 1.383 3.584.045 1.167-1.412 1.695-2.07.732" clip-rule="evenodd"/>
</svg>
